X:1
T:Title
%%score { 1 | 2 }
L:1/8
M:4/4
K:Eb
V:1 treble nm="Grand Piano"
V:2 bass 
V:1
 z4 z2[Q:1/4=100] G2 | G3 G A2 G2 | [DF]3 [DG] E2 G2 | G3 G [FG]2 [EG]2 | %4
 [E=A]2 [EA]2 [DB]2 [F_A]2 | G3 G A2 =A2 | B2 e2 e2 c2 | B3 c B2 G2 |[M:7/8] [EG]2 [EF]2 [DF]3 | %9
[M:1/4] [AB]2 |[M:4/4] [Ge]3 [Ge] [_Gd]2 [Gc]2 | [Gc]3 [GB] [GB]2 [GB]2 | B2 _d2 c2 G2 | %13
 B3 A A2 A2 | [FA]2 [Ac]2 [GB]2 [FA]2 | [EG]2 [EG]2 [EA]2 [E=A]2 | [EB]3 [Ge] [Ge]2 [EG]2 | %17
[M:3/4] [DF]3 E E2 |] %18
V:2
 z4 z2 [E,B,E]2 | [E,B,E]3 [E,=B,E] [E,CE]2 [E,_B,E]2 | [B,,A,]3 [B,,A,] [E,G,B,]2 [E,B,E]2 | %3
 [E,B,E]3 [E,B,E] [D,=B,]2 [C,C]2 | [F,C]2 [F,C]2 [B,,B,]2 [D,B,]2 | %5
 [E,B,E]3 [E,B,E] [F,B,D]2 [_G,CE]2 | [G,B,E]2 [G,_DG]2 [A,CA]2[K:bass] [A,E]2 | %7
 [E,G,E]3 [E,A,E] [E,G,E]2 [E,B,E]2 |[M:7/8] [C,=A,]2 [F,A,]2 [B,,B,]3 |[M:1/4] [B,D]2 | %10
[M:4/4] [E,B,]3 [E,B,] [E,=A,]2 [E,A,]2 | [E,B,]3 [E,E] [E,E]2 [E,D]2 | %12
 [B,C=E]2 [B,EG]2 [B,EG]2 [B,CE]2 | [A,CF]3 [A,CF] [A,CF]2 [A,CF]2 | %14
 [D,B,]2 [B,D]2 [B,D]2 [D,B,]2 | [E,B,]2 [_D,B,]2 [C,A,]2 [=B,,_G,]2 | %16
 [B,,G,]3 [B,,B,] [B,,B,]2 [B,,B,]2 |[M:3/4] [B,,A,]3 [E,G,B,] [E,G,B,]2 |] %18

